X:1
T:Title
%%score { 1 | ( 2 3 ) }
L:1/8
M:6/4
K:G
V:1 treble nm="Grand Piano"
V:2 treble 
V:3 treble 
V:1
 z6 z4[Q:1/4=132] B2 | B2 A2 B2 G4 A2 | B4 e2 d4 [Ac]2 | [Ac]2 [^GB]2 [Ac]2 [FA]4 [Fd]2 | %4
 [GB]6- [GB]4 [GB]2 | B2 A2 B2 G4 A2 | B4 e2 d4 d2 | ^c2 B2 [^CGA]2 [DGB]4 [Gc]2 | %8
 [Fd]6- [Fd]4 D2 | D2 E2 F2 G4 [DFA]2 | [DGB]4 [DFA]2 [DGB]4 E2 | E2 F2 ^G2 A4 [EGB]2 | c6- c4 F2 | %13
 G4 A2 B4 [GB]2 |[M:7/4] [Gc]4 [GB]2 [Ge]6 [Ge]2 |[M:6/4] [Gd]4 [G^c]2 [F=c]4 [FA]2 | %16
[M:5/4] [DG]2- [DG]2- [DG]6 |] %17
V:2
 z6 z4 [G,DG]2 | .D6 z6 | [G,DG]4 [G,CG]2 [G,B,G]4[K:bass] [D,D]2 | [D,D]4 [D,D]2 [D,D]4 [D,D]2 | %4
 [G,D]6- [G,D]4 [F,D]2 | .D6 z6 | [G,DG]4 [G,CG]2 [G,B,G]4 [G,B,G]2 | .E6[K:bass] z6 | %8
 [D,A,]6- [D,A,]4 D,2 | D,2 E,2 F,2 G,4 D,2 | G,4 D,2 G,4 E,2 | E,2 F,2 ^G,2 A,4 E,2 | %12
 [A,EA]6- [A,EA]4 [CD]2 | [B,D]4 [A,DF]2 [G,DG]4[K:bass] [F,D]2 | %14
[M:7/4] [E,C]4 [D,G,]2 [C,C]6 [C,C]2 |[M:6/4] [D,B,]4 [D,_B,]2 [D,A,]4 [D,C]2 | %16
[M:5/4] [G,B,]2- [G,B,]2- [G,B,]6 |] %17
V:3
 x12 | [G,G]2- [G,CG]2 [G,DG]2 [G,B,]4 [G,CG]2 | x10[K:bass] x2 | x12 | x12 | %5
 [G,G]2- [G,CG]2 [G,DG]2 [G,B,]4 [G,CG]2 | x12 | [A,G]2- [A,DG]2[K:bass] A,2 A,,4 [A,,A,]2 | x12 | %9
 x12 | x12 | x12 | x12 | x10[K:bass] x2 |[M:7/4] x14 |[M:6/4] x12 |[M:5/4] x10 |] %17

